X: 103
T: Miss Erskine of Marr's Favourite
R: reel, march
Q: "Slowish"
B: William Shepherd "1st Collection" 1793 p.10 #3
F: http://imslp.org/wiki/File:PMLP73094-Shepherd_Collections_HMT.pdf
C: William Shepherd (17??-1812)
Z: 2012 John Chambers <jc:trillian.mit.edu>
M: 2/4
L: 1/8
K: Eb
|:\
(B>e)GE | [DB,]>EFF | G>ABB | ~c>f e/d/c/B/ |\
eEEC | [DB,]>EFB | C>F (E/D/).C/.B,/ |1 E2 EG :|2 E2 EB ||
e>fge | dfbB | c>dec | BegG |\
A>Bcd | efga | g>eAF | E>DCB, |
E>GBG | ~Acec | B>dfd | e>BGE |\
.C.E.B,.E | .A,.E.G,.E | C>A (G/F/).E/.D/ | {F}E2 E2 |]
